X: 41
T: VALSE DES ROSES
M: 3/4
L: 1/8
Q:1/4=40
K:G
|d/2c/2BB/2B/2 A/2B/2d/2c/2B/2A|D/2GG/2A/2G/2 A/2B/2d/2B/2A3/2|
|:gg/2g/2f/2e/2 dB/2G3/2|G/2A/2B/2d/2c/2B/2 AF/2D3/2:|
G3/2ee/2 e/2d/2c/2dd/2|d3/2cc/2 c/2B/2A/2B/2G/2g/2|
d3/2ee/2 e/2d/2c/2dB/2|Gg/2f/2e/2d/2 c/2B/2A/2GG/2|G/2|
